X: 29352
T: Newmarket
R: polka
M: 2/4
K: Gmajor
|:D>D DB|AG EG|D>D DB|AG GE|
D>D DB|AG EG|D2 d>B|1 AG GE:|2 AG GA||
|:Bd A>B|AG EG|Bd A>B|AG G>A|
Bd A>B|AG EG|D2 d>B|1 AG G>A:|2 AG G2||

